src/images/svg/icon-smart-home.svg

<svg fill="none" height="32" viewBox="0 0 29 32" width="29" xmlns="http://www.w3.org/2000/svg"><path d="m9.32031 28.251c-.27614 0-.5.2238-.5.5 0 .2761.22386.5.5.5zm.81249 1c.2762 0 .5-.2239.5-.5 0-.2762-.2238-.5-.5-.5zm-.81249 0h.81249v-1h-.81249z" fill="#1b1b1b"/><path d="m8.41406 4.81348c-.27614 0-.5.22385-.5.5 0 .27614.22386.5.5.5zm2.68754 1c.2761 0 .5-.22386.5-.5 0-.27615-.2239-.5-.5-.5zm-2.68754 0h2.68754v-1h-2.68754z" fill="#1b1b1b"/><g stroke="#1b1b1b"><path d="m11.0078 13.1729h3.6724" stroke-linecap="round"/><path d="m11.0586 15.6104h1.9486" stroke-linecap="round"/><rect height="27" rx="1.5" width="15.9375" x="1.47656" y="3.6416"/><path d="m1.72656 7.0166h15.62504"/><path d="m1.78906 27.0166h15.37504"/><path d="m11.0586 17.9854h3.9972" stroke-linecap="round"/><path d="m11.0586 20.3916h1.8487" stroke-linecap="round"/><circle cx="6.41406" cy="20.0791" r="2.1875"/></g><path clip-rule="evenodd" d="m5.85156 17.4506c-.35877.0764-.69105.2244-.98117.4283-.0124-.0799-.01883-.1618-.01883-.2451v-4.9375c0-.8759.71005-1.5859 1.58594-1.5859s1.58594.71 1.58594 1.5859v4.9375c0 .0938-.00815.1858-.02379.2752-.28737-.2104-.61807-.365-.97621-.448v-4.7647c0-.3236-.26234-.5859-.58594-.5859s-.58594.2623-.58594.5859z" fill="#1b1b1b" fill-rule="evenodd"/><circle cx="6.4373" cy="20.0792" fill="#1b1b1b" r=".7"/><circle cx="22.8045" cy="7.9229" fill="#1b1b1b" r=".7"/><path d="m21.9194 10.6408-3.9442 2.4818c-.2909.183-.4674.5027-.4674.8464v6.8914c0 .5522.4477 1 1 1h8.5938c.5522 0 1-.4478 1-1v-6.8487c0-.3667-.2007-.7039-.5229-.8789l-4.6496-2.5244c-.3177-.1725-.7038-.1601-1.0097.0324z" stroke="#1b1b1b"/><rect height="4.4375" rx=".5" stroke="#1b1b1b" width="2.96875" x="20.9766" y="17.3604"/><path d="m19.3359 2.45426c1.924-2.140646 5.1681-2.062536 6.9375 0" stroke="#1b1b1b" stroke-linecap="round"/><path d="m20.2773 4.29035c1.4021-1.55999 3.7662-1.50307 5.0557 0" stroke="#1b1b1b" stroke-linecap="round"/><path d="m21.4141 5.94529c.7711-.858 2.0714-.82669 2.7806 0" stroke="#1b1b1b" stroke-linecap="round"/></svg>

<svg width="29" height="32" viewBox="0 0 29 32" fill="none" xmlns="http://www.w3.org/2000/svg">
<path d="M9.32031 28.251C9.04417 28.251 8.82031 28.4748 8.82031 28.751C8.82031 29.0271 9.04417 29.251 9.32031 29.251V28.251ZM10.1328 29.251C10.409 29.251 10.6328 29.0271 10.6328 28.751C10.6328 28.4748 10.409 28.251 10.1328 28.251V29.251ZM9.32031 29.251H10.1328V28.251H9.32031V29.251Z" fill="#1B1B1B"/>
<path d="M8.41406 4.81348C8.13792 4.81348 7.91406 5.03733 7.91406 5.31348C7.91406 5.58962 8.13792 5.81348 8.41406 5.81348V4.81348ZM11.1016 5.81348C11.3777 5.81348 11.6016 5.58962 11.6016 5.31348C11.6016 5.03733 11.3777 4.81348 11.1016 4.81348V5.81348ZM8.41406 5.81348H11.1016V4.81348H8.41406V5.81348Z" fill="#1B1B1B"/>
<path d="M11.0078 13.1729H14.6802" stroke="#1B1B1B" stroke-linecap="round"/>
<path d="M11.0586 15.6104H13.0072" stroke="#1B1B1B" stroke-linecap="round"/>
<rect x="1.47656" y="3.6416" width="15.9375" height="27" rx="1.5" stroke="#1B1B1B"/>
<path d="M1.72656 7.0166H17.3516" stroke="#1B1B1B"/>
<path d="M1.78906 27.0166H17.1641" stroke="#1B1B1B"/>
<path d="M11.0586 17.9854L15.0558 17.9854" stroke="#1B1B1B" stroke-linecap="round"/>
<path d="M11.0586 20.3916L12.9073 20.3916" stroke="#1B1B1B" stroke-linecap="round"/>
<circle cx="6.41406" cy="20.0791" r="2.1875" stroke="#1B1B1B"/>
<path fill-rule="evenodd" clip-rule="evenodd" d="M5.85156 17.4506C5.49279 17.527 5.16051 17.675 4.87039 17.8789C4.85799 17.799 4.85156 17.7171 4.85156 17.6338V12.6963C4.85156 11.8204 5.56161 11.1104 6.4375 11.1104C7.31339 11.1104 8.02344 11.8204 8.02344 12.6963V17.6338C8.02344 17.7276 8.01529 17.8196 7.99965 17.909C7.71228 17.6986 7.38158 17.544 7.02344 17.461V12.6963C7.02344 12.3727 6.7611 12.1104 6.4375 12.1104C6.1139 12.1104 5.85156 12.3727 5.85156 12.6963V17.4506Z" fill="#1B1B1B"/>
<circle cx="6.4373" cy="20.0792" r="0.7" fill="#1B1B1B"/>
<circle cx="22.8045" cy="7.9229" r="0.7" fill="#1B1B1B"/>
<path d="M21.9194 10.6408L17.9752 13.1226C17.6843 13.3056 17.5078 13.6253 17.5078 13.969V20.8604C17.5078 21.4126 17.9555 21.8604 18.5078 21.8604H27.1016C27.6538 21.8604 28.1016 21.4126 28.1016 20.8604V14.0117C28.1016 13.645 27.9009 13.3078 27.5787 13.1328L22.9291 10.6084C22.6114 10.4359 22.2253 10.4483 21.9194 10.6408Z" stroke="#1B1B1B"/>
<rect x="20.9766" y="17.3604" width="2.96875" height="4.4375" rx="0.5" stroke="#1B1B1B"/>
<path d="M19.3359 2.45426C21.2599 0.313614 24.504 0.391724 26.2734 2.45426" stroke="#1B1B1B" stroke-linecap="round"/>
<path d="M20.2773 4.29035C21.6794 2.73036 24.0435 2.78728 25.333 4.29035" stroke="#1B1B1B" stroke-linecap="round"/>
<path d="M21.4141 5.94529C22.1852 5.08729 23.4855 5.1186 24.1947 5.94529" stroke="#1B1B1B" stroke-linecap="round"/>
</svg>
